svg/town_hall.svg

<svg xmlns="http://www.w3.org/2000/svg" viewBox="0 0 24 24"><path d="M21 10h-4V8l-4.5-1.8V4H15V2h-3.5v4.2L7 8v2H3c-.55 0-1 .45-1 1v11h8v-5h4v5h8V11c0-.55-.45-1-1-1M8 20H4v-3h4zm0-5H4v-3h4zm4-7c.55 0 1 .45 1 1s-.45 1-1 1-1-.45-1-1 .45-1 1-1m2 7h-4v-3h4zm6 5h-4v-3h4zm0-5h-4v-3h4z"/></svg>

<svg xmlns="http://www.w3.org/2000/svg" id="mdi-town-hall" viewBox="0 0 24 24"><path d="M21 10H17V8L12.5 6.2V4H15V2H11.5V6.2L7 8V10H3C2.45 10 2 10.45 2 11V22H10V17H14V22H22V11C22 10.45 21.55 10 21 10M8 20H4V17H8V20M8 15H4V12H8V15M12 8C12.55 8 13 8.45 13 9S12.55 10 12 10 11 9.55 11 9 11.45 8 12 8M14 15H10V12H14V15M20 20H16V17H20V20M20 15H16V12H20V15Z" /></svg>
